assets/email-alt.svg

<svg fill="none" height="32" viewBox="0 0 32 32" width="32" xmlns="http://www.w3.org/2000/svg" xmlns:xlink="http://www.w3.org/1999/xlink"><clipPath id="a"><path d="m0 0h32v32h-32z"/></clipPath><g clip-path="url(#a)"><path d="m32 16c0-8.83656-7.1634-16-16-16-8.83656 0-16 7.16344-16 16 0 8.8366 7.16344 16 16 16 8.8366 0 16-7.1634 16-16z" fill="#f5f5f5"/><path d="m10.3939 10.8252c-.71428 0-1.2938.5795-1.2938 1.2938 0 .407.19136.7897.51752 1.035l5.86498 4.3987c.3073.2291.7277.2291 1.035 0l5.865-4.3987c.3261-.2453.5175-.628.5175-1.035 0-.7143-.5795-1.2938-1.2938-1.2938zm-1.2938 3.0188v5.6062c0 .9515.77352 1.7251 1.725 1.7251h10.35c.9515 0 1.725-.7736 1.725-1.7251v-5.6062l-5.865 4.3987c-.6145.4609-1.4555.4609-2.07 0z" fill="#131117"/></g></svg>

<svg width="32" height="32" viewBox="0 0 32 32" fill="none" xmlns="http://www.w3.org/2000/svg">
<g clip-path="url(#clip0_3337_27)">
<path d="M32 16C32 7.16344 24.8366 0 16 0C7.16344 0 0 7.16344 0 16C0 24.8366 7.16344 32 16 32C24.8366 32 32 24.8366 32 16Z" fill="#F5F5F5"/>
<path d="M10.3939 10.8252C9.67962 10.8252 9.1001 11.4047 9.1001 12.119C9.1001 12.526 9.29146 12.9087 9.61762 13.154L15.4826 17.5527C15.7899 17.7818 16.2103 17.7818 16.5176 17.5527L22.3826 13.154C22.7087 12.9087 22.9001 12.526 22.9001 12.119C22.9001 11.4047 22.3206 10.8252 21.6063 10.8252H10.3939ZM9.1001 13.844V19.4502C9.1001 20.4017 9.87362 21.1753 10.8251 21.1753H21.1751C22.1266 21.1753 22.9001 20.4017 22.9001 19.4502V13.844L17.0351 18.2427C16.4206 18.7036 15.5796 18.7036 14.9651 18.2427L9.1001 13.844Z" fill="#131117"/>
</g>
<defs>
<clipPath id="clip0_3337_27">
<rect width="32" height="32" fill="white"/>
</clipPath>
</defs>
</svg>
